img/step__03.svg

<svg width="49" height="48" viewBox="0 0 49 48" fill="none" xmlns="http://www.w3.org/2000/svg">
<path d="M48.6337 19.3783L25.4759 0.523013C25.1587 0.265604 24.6511 0.265604 24.2704 0.523013L1.11261 19.3783C0.85883 19.5713 0.731934 19.8287 0.731934 20.1505V46.535C0.731934 47.0498 1.17606 47.5003 1.68362 47.5003H47.9992C48.5068 47.5003 48.9509 47.0498 48.9509 46.535V20.1505C49.0144 19.8287 48.8875 19.5713 48.6337 19.3783ZM2.69876 21.7593L16.7203 33.214L2.69876 44.6688V21.7593ZM24.9049 28.9668L45.2711 45.5697H4.60215L24.9049 28.9668ZM33.0894 33.1497L47.111 21.6949V44.5401L33.0894 33.1497ZM24.9049 2.51794L46.2862 19.9574L31.5667 31.927L25.4759 26.9719C25.1587 26.7144 24.6511 26.7144 24.2704 26.9719L18.1796 31.927L3.46011 19.9574L24.9049 2.51794Z" fill="black"/>
<path d="M32.1378 13.6509H31.8205L32.0743 13.5222C30.8688 10.7551 28.2675 9.08191 25.1587 9.08191C20.9713 9.08191 17.5452 12.5569 17.5452 16.8042C17.5452 21.0515 20.9713 24.5265 25.1587 24.5265C26.7448 24.5265 28.2675 24.0117 29.5999 23.1107L29.2827 22.5959C28.0772 23.4325 26.6814 23.883 25.2221 23.883C21.3519 23.883 18.2431 20.6653 18.2431 16.8042C18.2431 12.9431 21.4154 9.72543 25.2221 9.72543C28.0772 9.72543 30.3613 11.2055 31.5667 13.7153V17.8338C31.5667 18.7348 30.8688 19.507 29.9171 19.507C29.0289 19.507 28.2675 18.6704 28.2041 17.7695C28.2675 17.4477 28.331 17.126 28.331 16.8042C28.331 15.0023 26.8717 13.4579 25.0318 13.4579C23.2553 13.4579 21.7326 14.938 21.7326 16.8042C21.7326 18.6061 23.1919 20.1505 25.0318 20.1505C26.1738 20.1505 27.189 19.5713 27.76 18.6704C28.1407 19.507 28.9655 20.1505 29.8537 20.1505C31.0592 20.1505 32.0743 19.1209 32.0743 17.8982L32.1378 13.6509ZM25.0953 19.5713C23.636 19.5713 22.4305 18.3486 22.4305 16.8685C22.4305 15.3884 23.636 14.1657 25.0953 14.1657C26.5545 14.1657 27.76 15.3884 27.76 16.8685C27.76 18.3486 26.5545 19.5713 25.0953 19.5713Z" fill="#FF2B00" stroke="#FF2B00" stroke-width="2" stroke-miterlimit="10"/>
</svg>

<svg width="49" height="48" fill="none" xmlns="http://www.w3.org/2000/svg"><path d="M48.634 19.378L25.476.523c-.317-.257-.825-.257-1.206 0L1.113 19.378a.922.922 0 00-.381.773v26.384c0 .515.444.965.952.965h46.315c.508 0 .952-.45.952-.965V20.151c.063-.322-.063-.58-.317-.773zM2.699 21.76L16.72 33.214 2.7 44.669v-22.91zm22.206 7.208L45.27 45.57H4.602l20.303-16.603zm8.184 4.183l14.022-11.455V44.54L33.089 33.15zM24.905 2.518l21.381 17.44-14.72 11.969-6.09-4.955c-.317-.258-.825-.258-1.206 0l-6.09 4.955-14.72-11.97 21.445-17.44z" fill="#000"/><path d="M32.138 13.65h-.317l.253-.128c-1.205-2.767-3.806-4.44-6.915-4.44-4.188 0-7.614 3.475-7.614 7.722 0 4.248 3.426 7.723 7.614 7.723 1.586 0 3.108-.515 4.44-1.416l-.316-.515a7.083 7.083 0 01-4.06 1.287c-3.871 0-6.98-3.218-6.98-7.079 0-3.86 3.172-7.079 6.98-7.079 2.854 0 5.138 1.48 6.344 3.99v4.119c0 .9-.698 1.673-1.65 1.673-.888 0-1.65-.837-1.713-1.738.063-.321.127-.643.127-.965 0-1.802-1.46-3.346-3.3-3.346-1.776 0-3.298 1.48-3.298 3.346 0 1.802 1.459 3.347 3.299 3.347 1.142 0 2.157-.58 2.728-1.48.38.836 1.205 1.48 2.094 1.48 1.205 0 2.22-1.03 2.22-2.253l.064-4.247zm-7.043 5.921c-1.459 0-2.665-1.222-2.665-2.703 0-1.48 1.206-2.702 2.665-2.702 1.46 0 2.665 1.222 2.665 2.703 0 1.48-1.206 2.702-2.665 2.702z" fill="#FF2B00" stroke="#FF2B00" stroke-width="2" stroke-miterlimit="10"/></svg>
